; G-Code generated by Simplify3D(R) Version 4.0.1
; Jan 18, 2018 at 1:49:19 AM
; Settings Summary
;   processName,Process1
;   applyToModels,flywheel
;   profileName,FlashForge Creator Pro (modified)
;   profileVersion,2015-05-01 08:00:00
;   baseProfile,
;   printMaterial,PLA
;   printQuality,Medium
;   printExtruders,Left Extruder Only
;   extruderName,Right Extruder,Left Extruder
;   extruderToolheadNumber,0,1
;   extruderDiameter,0.4,0.4
;   extruderAutoWidth,0,0
;   extruderWidth,0.4,0.4
;   extrusionMultiplier,0.9,0.9
;   extruderUseRetract,1,1
;   extruderRetractionDistance,1,1
;   extruderExtraRestartDistance,0,0
;   extruderRetractionZLift,0,0
;   extruderRetractionSpeed,1200,1200
;   extruderUseCoasting,0,0
;   extruderCoastingDistance,0.2,0.2
;   extruderUseWipe,0,0
;   extruderWipeDistance,5,5
;   primaryExtruder,1
;   layerHeight,0.2
;   topSolidLayers,3
;   bottomSolidLayers,3
;   perimeterOutlines,2
;   printPerimetersInsideOut,1
;   startPointOption,2
;   startPointOriginX,0
;   startPointOriginY,0
;   sequentialIslands,0
;   spiralVaseMode,0
;   firstLayerHeightPercentage,90
;   firstLayerWidthPercentage,110
;   firstLayerUnderspeed,0.25
;   useRaft,0
;   raftExtruder,1
;   raftTopLayers,3
;   raftBaseLayers,2
;   raftOffset,3
;   raftSeparationDistance,0.14
;   raftTopInfill,100
;   aboveRaftSpeedMultiplier,0.3
;   useSkirt,1
;   skirtExtruder,1
;   skirtLayers,1
;   skirtOutlines,6
;   skirtOffset,0
;   usePrimePillar,0
;   primePillarExtruder,999
;   primePillarWidth,12
;   primePillarLocation,7
;   primePillarSpeedMultiplier,1
;   useOozeShield,0
;   oozeShieldExtruder,999
;   oozeShieldOffset,2
;   oozeShieldOutlines,1
;   oozeShieldSidewallShape,1
;   oozeShieldSidewallAngle,30
;   oozeShieldSpeedMultiplier,1
;   infillExtruder,1
;   internalInfillPattern,Rectilinear
;   externalInfillPattern,Rectilinear
;   infillPercentage,20
;   outlineOverlapPercentage,20
;   infillExtrusionWidthPercentage,100
;   minInfillLength,5
;   infillLayerInterval,1
;   internalInfillAngles,45,-45
;   overlapInternalInfillAngles,0
;   externalInfillAngles,45,-45
;   generateSupport,1
;   supportExtruder,1
;   supportInfillPercentage,30
;   supportExtraInflation,0
;   supportBaseLayers,0
;   denseSupportExtruder,1
;   denseSupportLayers,0
;   denseSupportInfillPercentage,70
;   supportLayerInterval,1
;   supportHorizontalPartOffset,0.3
;   supportUpperSeparationLayers,1
;   supportLowerSeparationLayers,1
;   supportType,0
;   supportGridSpacing,4
;   maxOverhangAngle,45
;   supportAngles,0
;   temperatureName,Right Extruder,Left Extruder,Heated Build Platform
;   temperatureNumber,0,1,0
;   temperatureSetpointCount,1,1,1
;   temperatureSetpointLayers,1,1,1
;   temperatureSetpointTemperatures,0,200,50
;   temperatureStabilizeAtStartup,0,0,0
;   temperatureHeatedBed,0,0,1
;   temperatureRelayBetweenLayers,0,0,0
;   temperatureRelayBetweenLoops,0,0,0
;   fanLayers,1,2
;   fanSpeeds,0,100
;   blipFanToFullPower,0
;   adjustSpeedForCooling,1
;   minSpeedLayerTime,15
;   minCoolingSpeedSlowdown,20
;   increaseFanForCooling,0
;   minFanLayerTime,45
;   maxCoolingFanSpeed,100
;   increaseFanForBridging,1
;   bridgingFanSpeed,100
;   use5D,1
;   relativeEdistances,1
;   allowEaxisZeroing,0
;   independentExtruderAxes,1
;   includeM10123,0
;   stickySupport,1
;   applyToolheadOffsets,0
;   gcodeXoffset,0
;   gcodeYoffset,0
;   gcodeZoffset,0
;   overrideMachineDefinition,1
;   machineTypeOverride,0
;   strokeXoverride,225
;   strokeYoverride,145
;   strokeZoverride,150
;   originOffsetXoverride,112.5
;   originOffsetYoverride,72.5
;   originOffsetZoverride,0
;   homeXdirOverride,1
;   homeYdirOverride,1
;   homeZdirOverride,-1
;   flipXoverride,1
;   flipYoverride,-1
;   flipZoverride,1
;   toolheadOffsets,0,0|34,0|0,0|0,0|0,0|0,0
;   overrideFirmwareConfiguration,1
;   firmwareTypeOverride,MakerBot/Sailfish Firmware
;   GPXconfigOverride,r1d
;   baudRateOverride,115200
;   overridePrinterModels,1
;   printerModelsOverride,FlashForge_CreatorPro.stl
;   startingGcode,; **** Replicator 1 dual start.gcode ****,M73 P0 ; enable build progress,G162 X Y F3000 ; home XY maximum,G161 Z F1200 ; home Z minimum,G92 Z-5 ; set Z to -5,G1 Z0 ; move Z to 0,G161 Z F100 ; home Z slowly,M132 X Y Z A B ; recall home offsets,M135 T0 ; load right extruder offsets,G1 X150 Y-70 Z30 F9000 ; move to wait position right hand side of the table,G130 X20 Y20 Z20 A20 B20 ; lower stepper Vrefs while heating,M126 S[fan_speed_pwm],M140 S[bed0_temperature] T0,M104 S[extruder1_temperature] T1,M134 T0 ; stabilize bed temperature,M133 T1 ; stabilize left extruder temperature,G130 X127 Y127 Z40 A127 B127 ; default stepper Vrefs,G92 A0 B0 ; zero extruders,G1 Z0.4 ; position nozzle,M135 T1 ; left tool,G1 X110 Y-70 E30 F300 ; move nozzle,G1 X120 Y-70 Z0.15 F1200 ; slow wipe,G1 X110 Y-70 Z0.5 F1200 ; lift,G92 A0 B0 ; zero extruders,M73 P1 ;@body (notify GPX body has started),; **** end of start.gcode ****
;   layerChangeGcode,
;   retractionGcode,
;   toolChangeGcode,
;   endingGcode,; **** Replicator 1 dual end.gcode ****,M73 P100 ; end build progress,G1 Z150 F1000 ; send Z axis to bottom of machine,M140 S0 T0 ; cool down HBP,M104 S0 T0 ; cool down right extruder,M104 S0 T1 ; cool down left extruder,M127 ; stop blower fan,G162 X Y F3000 ; home XY maximum,M18 ; disable stepper,M72 P1 ; play Ta-Da song,; **** end of end.gcode ****
;   exportFileFormat,x3g
;   celebration,1
;   celebrationSong,Random Song
;   postProcessing,
;   defaultSpeed,3600
;   outlineUnderspeed,0.5
;   solidInfillUnderspeed,0.8
;   supportUnderspeed,0.8
;   rapidXYspeed,4200
;   rapidZspeed,1200
;   minBridgingArea,50
;   bridgingExtraInflation,0
;   bridgingExtrusionMultiplier,1
;   bridgingSpeedMultiplier,0.8
;   useFixedBridgingAngle,0
;   fixedBridgingAngle,0
;   applyBridgingToPerimeters,0
;   filamentDiameters,1.75|1.75|1.75|1.75|1.75|1.75
;   filamentPricesPerKg,46|46|46|46|46|46
;   filamentDensities,1.25|1.25|1.25|1.25|1.25|1.25
;   useMinPrintHeight,0
;   minPrintHeight,5
;   useMaxPrintHeight,0
;   maxPrintHeight,0
;   useDiaphragm,0
;   diaphragmLayerInterval,20
;   robustSlicing,1
;   mergeAllIntoSolid,0
;   onlyRetractWhenCrossingOutline,1
;   retractBetweenLayers,1
;   useRetractionMinTravel,0
;   retractionMinTravel,3
;   retractWhileWiping,0
;   onlyWipeOutlines,1
;   avoidCrossingOutline,0
;   maxMovementDetourFactor,3
;   toolChangeRetractionDistance,12
;   toolChangeExtraRestartDistance,-0.5
;   toolChangeRetractionSpeed,600
;   externalThinWallType,0
;   internalThinWallType,2
;   thinWallAllowedOverlapPercentage,10
;   singleExtrusionMinLength,1
;   singleExtrusionMinPrintingWidthPercentage,50
;   singleExtrusionMaxPrintingWidthPercentage,200
;   singleExtrusionEndpointExtension,0.2
;   horizontalSizeCompensation,0
G90
M83
; **** Replicator 1 dual start.gcode ****
M73 P0 ; enable build progress
G162 X Y F3000 ; home XY maximum
G161 Z F1200 ; home Z minimum
G92 Z-5 ; set Z to -5
G1 Z0 ; move Z to 0
G161 Z F100 ; home Z slowly
M132 X Y Z A B ; recall home offsets
M135 T0 ; load right extruder offsets
G1 X150 Y-70 Z30 F9000 ; move to wait position right hand side of the table
G130 X20 Y20 Z20 A20 B20 ; lower stepper Vrefs while heating
M127
M140 S50 T0
M104 S200 T1
M134 T0 ; stabilize bed temperature
M133 T1 ; stabilize left extruder temperature
G130 X127 Y127 Z40 A127 B127 ; default stepper Vrefs
G92 A0 B0 ; zero extruders
G1 Z0.4 ; position nozzle
M135 T1 ; left tool
G1 X110 Y-70 E30 F300 ; move nozzle
G1 X120 Y-70 Z0.15 F1200 ; slow wipe
G1 X110 Y-70 Z0.5 F1200 ; lift
G92 A0 B0 ; zero extruders
M73 P1 ;@body (notify GPX body has started)
; **** end of start.gcode ****
G1 E-1.0000 F1200
G1 Z0.180 F1200
; process Process1
; layer 1, Z = 0.180
M135 T1
; tool H0.200 W0.440
; skirt
G1 X8.864 Y-27.633 F4200
G1 E1.0000 F360
G1 X8.926 Y-27.614 E0.0021 F900
G1 X9.959 Y-27.258 E0.0360
G1 X9.999 Y-27.243 E0.0014
G1 X11.007 Y-26.852 E0.0356
G1 X11.046 Y-26.836 E0.0014
G1 X12.043 Y-26.404 E0.0358
G1 X12.092 Y-26.381 E0.0018
G1 X13.537 Y-25.670 E0.0530
G1 X13.584 Y-25.645 E0.0018
G1 X14.539 Y-25.116 E0.0359
G1 X14.585 Y-25.089 E0.0018
G1 X15.955 Y-24.241 E0.0530
G1 X15.999 Y-24.212 E0.0018
G1 X16.903 Y-23.590 E0.0361
G1 X16.954 Y-23.553 E0.0021
G1 X18.644 Y-22.239 E0.0705
G1 X18.694 Y-22.198 E0.0021
G1 X19.515 Y-21.479 E0.0359
G1 X19.547 Y-21.451 E0.0014
G1 X20.332 Y-20.708 E0.0356
G1 X20.363 Y-20.678 E0.0014
G1 X21.122 Y-19.901 E0.0358
G1 X21.159 Y-19.862 E0.0018
G1 X22.228 Y-18.658 E0.0530
G1 X22.262 Y-18.617 E0.0018
G1 X22.947 Y-17.766 E0.0359
G1 X22.979 Y-17.724 E0.0018
G1 X23.927 Y-16.422 E0.0530
G1 X23.958 Y-16.378 E0.0018
G1 X24.557 Y-15.465 E0.0359
G1 X24.585 Y-15.420 E0.0018
G1 X25.403 Y-14.032 E0.0530
G1 X25.429 Y-13.986 E0.0018
G1 X25.934 Y-13.024 E0.0358
G1 X25.953 Y-12.986 E0.0014
G1 X26.421 Y-12.006 E0.0358
G1 X26.443 Y-11.957 E0.0018
G1 X27.066 Y-10.471 E0.0530
G1 X27.085 Y-10.422 E0.0018
G1 X27.456 Y-9.401 E0.0358
G1 X27.470 Y-9.360 E0.0014
G1 X27.799 Y-8.331 E0.0356
G1 X27.812 Y-8.290 E0.0014
G1 X28.101 Y-7.248 E0.0356
G1 X28.112 Y-7.207 E0.0014
G1 X28.361 Y-6.155 E0.0356
G1 X28.370 Y-6.113 E0.0014
G1 X28.578 Y-5.052 E0.0356
G1 X28.585 Y-5.010 E0.0014
G1 X28.753 Y-3.937 E0.0358
G1 X28.760 Y-3.884 E0.0018
G1 X28.931 Y-2.282 E0.0530
G1 X28.935 Y-2.229 E0.0018
G1 X28.998 Y-1.145 E0.0358
G1 X29.000 Y-1.102 E0.0014
G1 X29.021 Y-0.021 E0.0356
G1 X29.021 Y0.021 E0.0014
G1 X29.000 Y1.102 E0.0356
G1 X28.998 Y1.145 E0.0014
G1 X28.935 Y2.229 E0.0358
G1 X28.931 Y2.282 E0.0018
G1 X28.760 Y3.884 E0.0530
G1 X28.753 Y3.937 E0.0018
G1 X28.584 Y5.016 E0.0359
G1 X28.575 Y5.068 E0.0018
G1 X28.247 Y6.657 E0.0534
G1 X28.229 Y6.731 E0.0025
G1 X27.633 Y8.864 E0.0729
G1 X27.614 Y8.926 E0.0021
G1 X27.258 Y9.959 E0.0360
G1 X27.243 Y9.999 E0.0014
G1 X26.852 Y11.007 E0.0356
G1 X26.836 Y11.046 E0.0014
G1 X26.404 Y12.043 E0.0358
G1 X26.381 Y12.092 E0.0018
G1 X25.670 Y13.537 E0.0530
G1 X25.645 Y13.584 E0.0018
G1 X25.116 Y14.539 E0.0359
G1 X25.089 Y14.585 E0.0018
G1 X24.241 Y15.955 E0.0530
G1 X24.212 Y15.999 E0.0018
G1 X23.593 Y16.898 E0.0359
G1 X23.562 Y16.942 E0.0018
G1 X22.583 Y18.227 E0.0532
G1 X22.542 Y18.277 E0.0021
G1 X21.490 Y19.503 E0.0532
G1 X21.454 Y19.543 E0.0018
G1 X20.704 Y20.336 E0.0359
G1 X20.666 Y20.374 E0.0018
G1 X19.504 Y21.489 E0.0530
G1 X19.465 Y21.525 E0.0018
G1 X18.641 Y22.242 E0.0359
G1 X18.600 Y22.276 E0.0018
G1 X17.336 Y23.274 E0.0530
G1 X17.293 Y23.306 E0.0018
G1 X16.404 Y23.940 E0.0359
G1 X16.360 Y23.970 E0.0018
G1 X15.005 Y24.840 E0.0530
G1 X14.960 Y24.868 E0.0018
G1 X14.014 Y25.413 E0.0359
G1 X13.967 Y25.439 E0.0018
G1 X12.534 Y26.174 E0.0530
G1 X12.486 Y26.198 E0.0018
G1 X11.492 Y26.649 E0.0359
G1 X11.443 Y26.670 E0.0018
G1 X9.945 Y27.263 E0.0530
G1 X9.895 Y27.282 E0.0018
G1 X8.862 Y27.635 E0.0359
G1 X8.811 Y27.651 E0.0018
G1 X7.264 Y28.097 E0.0530
G1 X7.212 Y28.111 E0.0018
G1 X6.150 Y28.362 E0.0359
G1 X6.098 Y28.373 E0.0018
G1 X4.509 Y28.668 E0.0532
G1 X4.446 Y28.678 E0.0021
G1 X2.837 Y28.882 E0.0534
G1 X2.773 Y28.888 E0.0021
G1 X1.161 Y28.997 E0.0532
G1 X1.108 Y29.000 E0.0018
G1 X0.021 Y29.021 E0.0358
G1 X-0.021 Y29.021 E0.0014
G1 X-1.108 Y29.000 E0.0358
G1 X-1.161 Y28.997 E0.0018
G1 X-2.768 Y28.888 E0.0530
G1 X-2.821 Y28.884 E0.0018
G1 X-3.905 Y28.757 E0.0359
G1 X-3.958 Y28.750 E0.0018
G1 X-5.547 Y28.486 E0.0530
G1 X-5.599 Y28.476 E0.0018
G1 X-6.673 Y28.244 E0.0362
G1 X-6.736 Y28.228 E0.0022
G1 X-8.864 Y27.633 E0.0728
G1 X-8.926 Y27.614 E0.0021
G1 X-9.959 Y27.258 E0.0360
G1 X-9.999 Y27.243 E0.0014
G1 X-11.007 Y26.852 E0.0356
G1 X-11.046 Y26.836 E0.0014
G1 X-12.043 Y26.404 E0.0358
G1 X-12.092 Y26.381 E0.0018
G1 X-13.537 Y25.670 E0.0530
G1 X-13.584 Y25.645 E0.0018
G1 X-14.539 Y25.116 E0.0359
G1 X-14.585 Y25.089 E0.0018
G1 X-15.955 Y24.241 E0.0530
G1 X-15.999 Y24.212 E0.0018
G1 X-16.903 Y23.590 E0.0361
G1 X-16.954 Y23.553 E0.0021
G1 X-18.644 Y22.239 E0.0705
G1 X-18.694 Y22.198 E0.0021
G1 X-19.515 Y21.479 E0.0359
G1 X-19.547 Y21.451 E0.0014
G1 X-20.332 Y20.708 E0.0356
G1 X-20.363 Y20.678 E0.0014
G1 X-21.122 Y19.901 E0.0358
G1 X-21.159 Y19.862 E0.0018
G1 X-22.228 Y18.658 E0.0530
G1 X-22.262 Y18.617 E0.0018
G1 X-22.947 Y17.766 E0.0359
G1 X-22.979 Y17.724 E0.0018
G1 X-23.927 Y16.422 E0.0530
G1 X-23.958 Y16.378 E0.0018
G1 X-24.557 Y15.465 E0.0359
G1 X-24.585 Y15.420 E0.0018
G1 X-25.403 Y14.032 E0.0530
G1 X-25.429 Y13.986 E0.0018
G1 X-25.934 Y13.024 E0.0358
G1 X-25.953 Y12.986 E0.0014
G1 X-26.421 Y12.006 E0.0358
G1 X-26.443 Y11.957 E0.0018
G1 X-27.066 Y10.471 E0.0530
G1 X-27.085 Y10.422 E0.0018
G1 X-27.456 Y9.401 E0.0358
G1 X-27.470 Y9.360 E0.0014
G1 X-27.799 Y8.331 E0.0356
G1 X-27.812 Y8.290 E0.0014
G1 X-28.101 Y7.248 E0.0356
G1 X-28.112 Y7.207 E0.0014
G1 X-28.361 Y6.155 E0.0356
G1 X-28.370 Y6.113 E0.0014
G1 X-28.578 Y5.052 E0.0356
G1 X-28.585 Y5.010 E0.0014
G1 X-28.753 Y3.937 E0.0358
G1 X-28.760 Y3.884 E0.0018
G1 X-28.931 Y2.282 E0.0530
G1 X-28.935 Y2.229 E0.0018
G1 X-28.998 Y1.145 E0.0358
G1 X-29.000 Y1.102 E0.0014
G1 X-29.021 Y0.021 E0.0356
G1 X-29.021 Y-0.021 E0.0014
G1 X-29.000 Y-1.102 E0.0356
G1 X-28.998 Y-1.145 E0.0014
G1 X-28.935 Y-2.229 E0.0358
G1 X-28.931 Y-2.282 E0.0018
G1 X-28.760 Y-3.884 E0.0530
G1 X-28.753 Y-3.937 E0.0018
G1 X-28.584 Y-5.016 E0.0359
G1 X-28.575 Y-5.068 E0.0018
G1 X-28.247 Y-6.657 E0.0534
G1 X-28.229 Y-6.731 E0.0025
G1 X-27.633 Y-8.864 E0.0729
G1 X-27.614 Y-8.926 E0.0021
G1 X-27.258 Y-9.959 E0.0360
G1 X-27.243 Y-9.999 E0.0014
G1 X-26.852 Y-11.007 E0.0356
G1 X-26.836 Y-11.046 E0.0014
G1 X-26.402 Y-12.047 E0.0359
G1 X-26.376 Y-12.104 E0.0021
G1 X-25.445 Y-13.955 E0.0682
G1 X-25.414 Y-14.012 E0.0021
G1 X-24.831 Y-15.021 E0.0384
G1 X-24.802 Y-15.067 E0.0018
G1 X-23.925 Y-16.425 E0.0532
G1 X-23.889 Y-16.478 E0.0021
G1 X-22.934 Y-17.782 E0.0532
G1 X-22.902 Y-17.824 E0.0018
G1 X-22.215 Y-18.673 E0.0359
G1 X-22.181 Y-18.714 E0.0018
G1 X-21.108 Y-19.916 E0.0530
G1 X-21.072 Y-19.955 E0.0018
G1 X-20.310 Y-20.729 E0.0358
G1 X-20.280 Y-20.759 E0.0014
G1 X-19.489 Y-21.504 E0.0358
G1 X-19.449 Y-21.539 E0.0018
G1 X-18.224 Y-22.585 E0.0530
G1 X-18.182 Y-22.619 E0.0018
G1 X-17.319 Y-23.287 E0.0359
G1 X-17.276 Y-23.318 E0.0018
G1 X-15.956 Y-24.241 E0.0530
G1 X-15.911 Y-24.270 E0.0018
G1 X-14.987 Y-24.852 E0.0359
G1 X-14.941 Y-24.879 E0.0018
G1 X-13.533 Y-25.672 E0.0532
G1 X-13.477 Y-25.702 E0.0021
G1 X-12.025 Y-26.412 E0.0532
G1 X-11.976 Y-26.434 E0.0018
G1 X-10.974 Y-26.866 E0.0359
G1 X-10.924 Y-26.886 E0.0018
G1 X-9.416 Y-27.451 E0.0530
G1 X-9.365 Y-27.468 E0.0018
G1 X-8.331 Y-27.799 E0.0358
G1 X-8.290 Y-27.812 E0.0014
G1 X-7.243 Y-28.103 E0.0358
G1 X-7.191 Y-28.116 E0.0018
G1 X-5.615 Y-28.472 E0.0532
G1 X-5.552 Y-28.485 E0.0021
G1 X-3.958 Y-28.750 E0.0532
G1 X-3.905 Y-28.757 E0.0018
G1 X-2.821 Y-28.884 E0.0359
G1 X-2.768 Y-28.888 E0.0018
G1 X-1.161 Y-28.997 E0.0530
G1 X-1.108 Y-29.000 E0.0018
G1 X-0.021 Y-29.021 E0.0358
G1 X0.021 Y-29.021 E0.0014
G1 X1.102 Y-29.000 E0.0356
G1 X1.145 Y-28.998 E0.0014
G1 X2.229 Y-28.935 E0.0358
G1 X2.282 Y-28.931 E0.0018
G1 X3.884 Y-28.760 E0.0530
G1 X3.937 Y-28.753 E0.0018
G1 X5.016 Y-28.584 E0.0359
G1 X5.068 Y-28.575 E0.0018
G1 X6.657 Y-28.247 E0.0534
G1 X6.731 Y-28.229 E0.0025
G1 X8.864 Y-27.633 E0.0729
G1 X8.751 Y-27.249 F4200
G1 X8.802 Y-27.234 E0.0018 F900
G1 X9.825 Y-26.881 E0.0356
G1 X9.858 Y-26.869 E0.0011
G1 X10.859 Y-26.481 E0.0353
G1 X10.891 Y-26.467 E0.0011
G1 X11.880 Y-26.039 E0.0355
G1 X11.919 Y-26.020 E0.0014
G1 X13.356 Y-25.313 E0.0527
G1 X13.394 Y-25.293 E0.0014
G1 X14.341 Y-24.769 E0.0356
G1 X14.378 Y-24.747 E0.0014
G1 X15.740 Y-23.904 E0.0527
G1 X15.776 Y-23.880 E0.0014
G1 X16.671 Y-23.264 E0.0358
G1 X16.714 Y-23.233 E0.0017
G1 X18.394 Y-21.927 E0.0701
G1 X18.435 Y-21.893 E0.0017
G1 X19.249 Y-21.181 E0.0356
G1 X19.275 Y-21.157 E0.0011
G1 X20.054 Y-20.420 E0.0353
G1 X20.079 Y-20.395 E0.0011
G1 X20.833 Y-19.625 E0.0355
G1 X20.863 Y-19.593 E0.0014
G1 X21.926 Y-18.396 E0.0527
G1 X21.954 Y-18.362 E0.0014
G1 X22.632 Y-17.519 E0.0356
G1 X22.659 Y-17.485 E0.0014
G1 X23.601 Y-16.190 E0.0527
G1 X23.626 Y-16.154 E0.0014
G1 X24.220 Y-15.250 E0.0356
G1 X24.243 Y-15.213 E0.0014
